X: 16087
T: Green Fields Of Woodford, The
R: jig
M: 6/8
K: Gmajor
d|:dBA ~G2E|EDE G3|edB dBA|B2e ege|
dBA ~G2E|EDE G3|AGE ~A2B|1 GED D2d:|2 GED D2c||
|:BGG dGG|edB dBA|BGG dGG|edB A2c|
BGG deg|age dBA|AGE ~A2B|1 GED D2c:|2 GED D2d||

